; generated by PrusaSlicer 2.3.0-beta2+linux-x64-GTK3 on 2020-12-12 at 17:04:04 UTC


;
;

;
;
; 

; external perimeters extrusion width = 0.11mm
; perimeters extrusion width = 0.11mm
; infill extrusion width = 0.11mm
; solid infill extrusion width = 0.11mm
; top infill extrusion width = 0.10mm
; first layer extrusion width = 0.20mm

M107
;TYPE:Custom
; ==== Printer Rebel XY - 6 <begin> ====
M05 S0         ; Power off laser
M300 S440 P150 ; Notify start
M300 S880 P150
M300 S440 P150
M300 S880 P150

G28  ; Park head
M400

M300 S660 P150 ; Start of leveling
M300 S1320 P150
M300 S660 P150
M300 S1320 P150

G21 ; set units to millimeters
G90 ; use absolute coordinates
M82 ; use absolute distances for extrusion
G92 E0
; Filament gcode
;LAYER_CHANGE
;Z:0.1
;HEIGHT:0.1
; ---- LAYER 0 (0.1mm) ----

G1 Z0.100 F7800.000
G1 E-2.00000 F2400.000
G92 E0
G1 X10.298 Y16.619 F7800.000
G1 E2.00000 F2400.000
;TYPE:External perimeter
G1 F3600.000
G1 X10.545 Y16.486 E2.00637
G1 X10.720 Y16.421 E2.01062
G1 X11.114 Y16.321 E2.01984
G1 X11.533 Y16.270 E2.02945
G1 X12.173 Y16.285 E2.04400
G1 X12.581 Y16.357 E2.05342
G1 X12.953 Y16.479 E2.06231
G1 X13.114 Y16.555 E2.06637
G1 X13.370 Y16.722 E2.07330
G1 X13.542 Y16.872 E2.07851
G1 X13.734 Y17.137 E2.08594
G1 X13.861 Y17.503 E2.09476
G1 X13.938 Y18.040 E2.10709
G1 X13.977 Y18.805 E2.12449
G1 X14.013 Y20.575 E2.16473
G1 X12.729 Y20.575 E2.19392
G1 X12.675 Y18.225 E2.24735
G1 X12.649 Y17.817 E2.25664
G1 X12.605 Y17.552 E2.26275
G1 X12.530 Y17.375 E2.26712
G1 X12.353 Y17.223 E2.27242
G1 X12.119 Y17.130 E2.27814
G1 X11.765 Y17.087 E2.28624
G1 X11.408 Y17.130 E2.29443
G1 X11.169 Y17.221 E2.30024
G1 X10.979 Y17.364 E2.30564
G1 X10.914 Y17.469 E2.30846
G1 X10.872 Y17.609 E2.31177
G1 X10.831 Y18.196 E2.32514
G1 X10.826 Y20.575 E2.37922
G1 X9.542 Y20.575 E2.40841
G1 X9.543 Y18.796 E2.44884
G1 X9.568 Y18.042 E2.46600
G1 X9.635 Y17.512 E2.47813
G1 X9.758 Y17.148 E2.48686
G1 X9.873 Y16.969 E2.49172
G1 X10.029 Y16.810 E2.49677
G1 X10.285 Y16.626 E2.50394
G1 X11.078 Y17.166 F7800.000
;TYPE:Solid infill
G1 F3600.000
G1 X9.958 Y17.166 E2.52953
G1 X9.920 Y17.226 E2.53116
G1 X9.879 Y17.346 E2.53404
G1 X10.780 Y17.346 E2.55462
G1 X10.711 Y17.525 E2.55901
G1 X9.819 Y17.525 E2.57938
G1 X9.810 Y17.552 E2.58004
G1 X9.791 Y17.705 E2.58354
G1 X10.687 Y17.705 E2.60401
G1 X10.674 Y17.884 E2.60812
G1 X9.768 Y17.884 E2.62881
G1 X9.746 Y18.063 E2.63294
G1 X10.661 Y18.063 E2.65385
G1 X10.652 Y18.243 E2.65796
G1 X9.740 Y18.243 E2.67879
G1 X9.734 Y18.422 E2.68289
G1 X10.652 Y18.422 E2.70385
G1 X10.651 Y18.602 E2.70795
G1 X9.728 Y18.602 E2.72904
G1 X9.722 Y18.781 E2.73314
G1 X10.651 Y18.781 E2.75436
G1 X10.650 Y18.960 E2.75845
G1 X9.721 Y18.960 E2.77968
G1 X9.721 Y19.140 E2.78377
G1 X10.650 Y19.140 E2.80499
G1 X10.650 Y19.319 E2.80909
G1 X9.721 Y19.319 E2.83030
G1 X9.721 Y19.499 E2.83440
G1 X10.649 Y19.499 E2.85560
G1 X10.649 Y19.678 E2.85970
G1 X9.721 Y19.678 E2.88090
G1 X9.721 Y19.857 E2.88500
G1 X10.649 Y19.857 E2.90619
G1 X10.648 Y20.037 E2.91029
G1 X9.721 Y20.037 E2.93148
G1 X9.721 Y20.216 E2.93558
G1 X10.648 Y20.216 E2.95676
G1 X10.647 Y20.396 E2.96086
G1 X9.640 Y20.396 E2.98387
G1 E0.98387 F2400.000
G92 E0
G1 X12.824 Y20.396 F7800.000
G1 E2.00000 F2400.000
G1 F3600.000
G1 X13.831 Y20.396 E2.02302
G1 X13.827 Y20.216 E2.02712
G1 X12.900 Y20.216 E2.04831
G1 X12.896 Y20.037 E2.05241
G1 X13.824 Y20.037 E2.07361
G1 X13.820 Y19.857 E2.07770
G1 X12.891 Y19.857 E2.09891
G1 X12.887 Y19.678 E2.10301
G1 X13.816 Y19.678 E2.12423
G1 X13.813 Y19.499 E2.12833
G1 X12.883 Y19.499 E2.14956
G1 X12.879 Y19.319 E2.15366
G1 X13.809 Y19.319 E2.17490
G1 X13.805 Y19.140 E2.17900
G1 X12.875 Y19.140 E2.20025
G1 X12.871 Y18.960 E2.20435
G1 X13.801 Y18.960 E2.22560
G1 X13.797 Y18.781 E2.22970
G1 X12.867 Y18.781 E2.25095
G1 X12.862 Y18.602 E2.25505
G1 X13.788 Y18.602 E2.27618
G1 X13.779 Y18.422 E2.28029
G1 X12.858 Y18.422 E2.30131
G1 X12.854 Y18.243 E2.30541
G1 X13.769 Y18.243 E2.32631
G1 X13.760 Y18.063 E2.33042
G1 X12.844 Y18.063 E2.35136
G1 X12.832 Y17.884 E2.35546
G1 X13.735 Y17.884 E2.37610
G1 X13.710 Y17.705 E2.38024
G1 X12.811 Y17.705 E2.40075
G1 X12.782 Y17.525 E2.40491
G1 X13.680 Y17.525 E2.42541
G1 X13.618 Y17.346 E2.42975
G1 X12.711 Y17.346 E2.45045
G1 X12.677 Y17.267 E2.45241
G1 X12.561 Y17.166 E2.45592
G1 X13.535 Y17.166 E2.47817
G1 X13.410 Y16.993 E2.48306
G1 X10.105 Y16.987 E2.55855
G1 X10.325 Y16.808 E2.56503
G1 X13.175 Y16.808 E2.63012
G1 X13.027 Y16.711 E2.63416
G1 X12.835 Y16.628 E2.63892
G1 X10.676 Y16.628 E2.68826
G1 X11.146 Y16.497 E2.69942
G1 X11.539 Y16.449 E2.70845
G1 X12.534 Y16.449 E2.73119
G1 X11.613 Y15.063 F7800.000
;TYPE:External perimeter
G1 F3600.000
G1 X9.558 Y15.063 E2.77792
G1 X9.517 Y14.250 E2.79644
G1 X9.505 Y13.380 E2.81622
G1 X9.551 Y9.752 E2.89868
G1 X10.742 Y9.760 E2.92577
G1 X10.930 Y9.788 E2.93007
G1 X11.035 Y9.841 E2.93276
G1 X11.096 Y9.929 E2.93518
G1 X11.143 Y10.232 E2.94214
G1 X11.118 Y11.581 E2.97282
G1 X11.145 Y11.819 E2.97827
G1 X11.230 Y11.999 E2.98280
G1 X11.443 Y12.052 E2.98777
G1 X11.843 Y12.076 E2.99689
G1 X13.157 Y12.083 E3.02676
G1 X13.157 Y12.732 E3.04150
G1 X11.143 Y12.732 E3.08728
G1 X11.143 Y13.674 E3.10869
G1 X14.217 Y13.674 E3.17856
G1 X14.217 Y15.063 E3.21015
G1 X11.628 Y15.063 E3.26899
G1 E1.26899 F2400.000
G92 E0
G1 X10.979 Y9.933 F7800.000
G1 E2.00000 F2400.000
;TYPE:Solid infill
G1 F3600.000
G1 X9.727 Y9.933 E2.02923
G1 X9.725 Y10.117 E2.03350
G1 X10.944 Y10.117 E2.06197
G1 X10.964 Y10.244 E2.06497
G1 X10.963 Y10.300 E2.06628
G1 X9.723 Y10.300 E2.09525
G1 X9.720 Y10.483 E2.09952
G1 X10.960 Y10.483 E2.12846
G1 X10.957 Y10.667 E2.13274
G1 X9.718 Y10.667 E2.16165
G1 X9.716 Y10.850 E2.16593
G1 X10.953 Y10.850 E2.19482
G1 X10.950 Y11.033 E2.19910
G1 X9.713 Y11.033 E2.22796
G1 X9.711 Y11.216 E2.23224
G1 X10.947 Y11.216 E2.26108
G1 X10.943 Y11.400 E2.26536
G1 X9.709 Y11.400 E2.29417
G1 X9.706 Y11.583 E2.29845
G1 X10.940 Y11.583 E2.32724
G1 X10.959 Y11.766 E2.33154
G1 X9.704 Y11.766 E2.36084
G1 X9.702 Y11.950 E2.36512
G1 X11.009 Y11.950 E2.39564
G1 X11.096 Y12.133 E2.40038
G1 X9.699 Y12.133 E2.43298
G1 X9.697 Y12.316 E2.43726
G1 X12.979 Y12.316 E2.51385
G1 X12.979 Y12.500 E2.51813
G1 X9.695 Y12.500 E2.59477
G1 X9.692 Y12.683 E2.59905
G1 X10.965 Y12.683 E2.62876
G1 X10.965 Y12.866 E2.63303
G1 X9.690 Y12.866 E2.66279
G1 X9.688 Y13.050 E2.66707
G1 X10.965 Y13.050 E2.69688
G1 X10.965 Y13.233 E2.70116
G1 X9.685 Y13.233 E2.73102
G1 X9.684 Y13.416 E2.73530
G1 X10.965 Y13.416 E2.76520
G1 X10.965 Y13.599 E2.76948
G1 X9.686 Y13.599 E2.79932
G1 X9.689 Y13.783 E2.80360
G1 X10.965 Y13.783 E2.83338
G1 X10.965 Y13.852 E2.83500
G1 X14.038 Y13.852 E2.90673
G1 X14.038 Y13.966 E2.90939
G1 X9.691 Y13.966 E3.01085
G1 X9.694 Y14.149 E3.01512
G1 X14.038 Y14.149 E3.11652
G1 X14.038 Y14.333 E3.12080
G1 X9.700 Y14.333 E3.22206
G1 X9.709 Y14.516 E3.22635
G1 X14.038 Y14.516 E3.32739
G1 X14.038 Y14.699 E3.33167
G1 X9.718 Y14.699 E3.43250
G1 X9.727 Y14.883 E3.43679
G1 X14.119 Y14.883 E3.53927
G1 E1.53927 F2400.000
G92 E0
G1 X17.586 Y10.902 F7800.000
G1 E2.00000 F2400.000
;TYPE:External perimeter
G1 F3600.000
G1 X18.001 Y10.886 E2.00944
G1 X18.390 Y10.904 E2.01829
G1 X18.622 Y10.970 E2.02378
G1 X18.815 Y11.101 E2.02909
G1 X19.018 Y11.316 E2.03582
G1 X19.173 Y11.613 E2.04342
G1 X19.263 Y11.956 E2.05148
G1 X19.293 Y12.321 E2.05981
G1 X19.267 Y12.685 E2.06812
G1 X19.231 Y12.866 E2.07231
G1 X19.122 Y13.190 E2.08007
G1 X19.043 Y13.341 E2.08395
G1 X18.848 Y13.574 E2.09086
G1 X18.715 Y13.666 E2.09454
G1 X18.467 Y13.729 E2.10036
G1 X18.104 Y13.770 E2.10866
G1 X17.649 Y13.778 E2.11901
G1 X17.245 Y13.727 E2.12826
G1 X17.042 Y13.629 E2.13337
G1 X16.799 Y13.404 E2.14090
G1 X16.684 Y13.234 E2.14557
G1 X16.558 Y12.942 E2.15281
G1 X16.476 Y12.499 E2.16304
G1 X16.471 Y12.259 E2.16850
G1 X16.492 Y12.018 E2.17400
G1 X16.541 Y11.779 E2.17955
G1 X16.612 Y11.551 E2.18498
G1 X16.700 Y11.361 E2.18974
G1 X16.811 Y11.204 E2.19411
G1 X16.953 Y11.082 E2.19837
G1 X17.125 Y10.994 E2.20277
G1 X17.330 Y10.937 E2.20759
G1 X17.571 Y10.903 E2.21312
G1 E0.21312 F2400.000
G92 E0
G1 X15.471 Y14.339 F7800.000
G1 E2.00000 F2400.000
G1 F3600.000
G1 X15.253 Y14.129 E2.00688
G1 X15.088 Y13.884 E2.01361
G1 X14.821 Y13.304 E2.02812
G1 X14.689 Y12.813 E2.03968
G1 X14.663 Y12.576 E2.04510
G1 X14.663 Y12.332 E2.05065
G1 X14.688 Y12.078 E2.05645
G1 X14.774 Y11.662 E2.06610
G1 X14.969 Y11.098 E2.07968
G1 X15.159 Y10.752 E2.08864
G1 X15.396 Y10.465 E2.09711
G1 X15.586 Y10.299 E2.10284
G1 X15.807 Y10.147 E2.10894
G1 X16.372 Y9.865 E2.12330
G1 X16.670 Y9.771 E2.13039
G1 X17.148 Y9.713 E2.14135
G1 X18.087 Y9.701 E2.16269
G1 X18.604 Y9.719 E2.17446
G1 X18.975 Y9.757 E2.18293
G1 X19.291 Y9.818 E2.19024
G1 X19.563 Y9.904 E2.19674
G1 X19.805 Y10.020 E2.20284
G1 X20.030 Y10.169 E2.20896
G1 X20.249 Y10.355 E2.21549
G1 X20.550 Y10.674 E2.22547
G1 X20.767 Y10.974 E2.23389
G1 X20.871 Y11.174 E2.23902
G1 X20.948 Y11.390 E2.24423
G1 X21.002 Y11.631 E2.24984
G1 X21.036 Y11.907 E2.25615
G1 X21.053 Y12.408 E2.26756
G1 X21.037 Y12.903 E2.27881
G1 X20.991 Y13.229 E2.28629
G1 X20.953 Y13.352 E2.28923
G1 X20.819 Y13.621 E2.29607
G1 X20.590 Y13.974 E2.30562
G1 X20.448 Y14.143 E2.31065
G1 X20.099 Y14.452 E2.32123
G1 X19.900 Y14.585 E2.32668
G1 X19.428 Y14.825 E2.33873
G1 X19.014 Y14.968 E2.34868
G1 X18.624 Y15.023 E2.35764
G1 X18.230 Y15.052 E2.36661
G1 X17.261 Y15.054 E2.38864
G1 X16.877 Y15.013 E2.39741
G1 X16.721 Y14.976 E2.40107
G1 X16.172 Y14.755 E2.41452
G1 X15.606 Y14.447 E2.42916
G1 X15.483 Y14.349 E2.43274
G1 X17.095 Y13.763 F7800.000
;TYPE:Solid infill
G1 F3600.000
G1 X15.229 Y13.763 E2.47666
G1 X15.144 Y13.579 E2.48145
G1 X16.725 Y13.579 E2.51865
G1 X16.576 Y13.394 E2.52423
G1 X15.059 Y13.394 E2.55993
G1 X14.981 Y13.209 E2.56465
G1 X16.478 Y13.209 E2.59990
G1 X16.399 Y13.024 E2.60463
G1 X14.931 Y13.024 E2.63918
G1 X14.881 Y12.839 E2.64369
G1 X16.357 Y12.839 E2.67842
G1 X16.323 Y12.655 E2.68285
G1 X14.851 Y12.655 E2.71747
G1 X14.842 Y12.470 E2.72183
G1 X16.296 Y12.470 E2.75606
G1 X16.293 Y12.285 E2.76041
G1 X14.847 Y12.285 E2.79444
G1 X14.866 Y12.100 E2.79881
G1 X16.306 Y12.100 E2.83270
G1 X16.331 Y11.915 E2.83709
G1 X14.904 Y11.915 E2.87067
G1 X14.942 Y11.731 E2.87511
G1 X16.369 Y11.731 E2.90868
G1 X16.427 Y11.546 E2.91324
G1 X15.003 Y11.546 E2.94674
G1 X15.067 Y11.361 E2.95134
G1 X16.503 Y11.361 E2.98514
G1 X16.612 Y11.176 E2.99019
G1 X15.133 Y11.170 E3.02499
G1 X15.231 Y10.991 E3.02980
G1 X16.784 Y10.991 E3.06634
G1 X16.852 Y10.932 E3.06847
G1 X17.133 Y10.807 E3.07569
G1 X15.346 Y10.807 E3.11774
G1 X15.498 Y10.622 E3.12338
G1 X20.255 Y10.622 E3.23533
G1 X20.070 Y10.437 E3.24149
G1 X15.700 Y10.437 E3.34430
G1 X15.996 Y10.252 E3.35252
G1 X19.832 Y10.252 E3.44278
G1 X19.717 Y10.176 E3.44604
G1 X19.486 Y10.067 E3.45204
G1 X16.366 Y10.067 E3.52546
G1 X16.708 Y9.946 E3.53398
G1 X17.160 Y9.891 E3.54471
G1 X19.108 Y9.882 E3.59054
G1 X20.525 Y10.807 F7800.000
G1 F3600.000
G1 X18.699 Y10.807 E3.63350
G1 X18.956 Y10.991 E3.64095
G1 X20.560 Y10.991 E3.67868
G1 X20.671 Y11.176 E3.68376
G1 X19.132 Y11.176 E3.71997
G1 X19.243 Y11.361 E3.72505
G1 X20.748 Y11.361 E3.76047
G1 X20.777 Y11.440 E3.76244
G1 X20.800 Y11.546 E3.76499
G1 X19.339 Y11.546 E3.79936
G1 X19.389 Y11.731 E3.80386
G1 X20.834 Y11.731 E3.83789
G1 X20.857 Y11.915 E3.84227
G1 X19.437 Y11.915 E3.87567
G1 X19.454 Y12.100 E3.88004
G1 X20.864 Y12.100 E3.91320
G1 X20.870 Y12.285 E3.91755
G1 X19.469 Y12.285 E3.95051
G1 X19.461 Y12.470 E3.95486
G1 X20.872 Y12.470 E3.98806
G1 X20.866 Y12.655 E3.99241
G1 X19.448 Y12.655 E4.02579
G1 X19.418 Y12.839 E4.03019
G1 X20.861 Y12.839 E4.06413
G1 X20.840 Y13.024 E4.06850
G1 X19.367 Y13.024 E4.10317
G1 X19.304 Y13.209 E4.10776
G1 X20.810 Y13.209 E4.14320
G1 X20.733 Y13.394 E4.14792
G1 X19.216 Y13.394 E4.18360
G1 X19.077 Y13.579 E4.18905
G1 X20.634 Y13.579 E4.22569
G1 X20.514 Y13.763 E4.23087
G1 X18.731 Y13.763 E4.27284
G1 X18.991 Y14.872 F7800.000
G1 F3600.000
G1 X17.241 Y14.872 E4.31400
G1 X16.775 Y14.806 E4.32510
G1 X16.482 Y14.688 E4.33252
G1 X19.280 Y14.688 E4.39836
G1 X19.668 Y14.503 E4.40847
G1 X16.082 Y14.503 E4.49285
G1 X15.743 Y14.318 E4.50195
G1 X19.979 Y14.318 E4.60162
G1 X20.190 Y14.133 E4.60824
G1 X15.499 Y14.133 E4.71863
G1 X15.346 Y13.948 E4.72427
G1 X20.484 Y13.948 E4.84515
G1 E2.84515 F2400.000
G92 E0
G1 X18.852 Y16.248 F7800.000
G1 E2.00000 F2400.000
;TYPE:External perimeter
G1 F3600.000
G1 X20.167 Y16.232 E2.02990
G1 X22.411 Y16.269 E2.08091
G1 X22.429 Y17.344 E2.10536
G1 X19.514 Y17.408 E2.17164
G1 X19.524 Y17.898 E2.18278
G1 X19.577 Y18.009 E2.18557
G1 X19.690 Y18.079 E2.18858
G1 X20.033 Y18.129 E2.19648
G1 X21.061 Y18.174 E2.21987
G1 X21.107 Y18.667 E2.23112
G1 X19.516 Y18.667 E2.26728
G1 X19.516 Y19.503 E2.28628
G1 X22.060 Y19.503 E2.34410
G1 X22.060 Y20.575 E2.36847
G1 X17.029 Y20.572 E2.48282
G1 X15.546 Y20.544 E2.51654
G1 X15.254 Y20.519 E2.52321
G1 X15.011 Y20.463 E2.52888
G1 X14.877 Y20.383 E2.53241
G1 X14.705 Y20.208 E2.53799
G1 X14.599 Y20.009 E2.54312
G1 X14.554 Y19.786 E2.54830
G1 X14.571 Y19.536 E2.55400
G1 X14.652 Y19.260 E2.56054
G1 X14.896 Y18.807 E2.57224
G1 X15.145 Y18.480 E2.58156
G1 X15.564 Y17.990 E2.59622
G1 X15.688 Y17.804 E2.60132
G1 X15.780 Y17.562 E2.60721
G1 X15.517 Y17.449 E2.61372
G1 X15.170 Y17.404 E2.62166
G1 X14.311 Y17.396 E2.64120
G1 X14.311 Y16.323 E2.66558
G1 X15.812 Y16.326 E2.69969
G1 X16.496 Y16.362 E2.71528
G1 X16.995 Y16.446 E2.72677
G1 X17.270 Y16.550 E2.73345
G1 X17.360 Y16.609 E2.73590
G1 X17.494 Y16.761 E2.74052
G1 X17.560 Y16.956 E2.74520
G1 X17.565 Y17.216 E2.75110
G1 X17.506 Y17.531 E2.75838
G1 X17.443 Y17.694 E2.76236
G1 X17.242 Y18.056 E2.77178
G1 X16.960 Y18.421 E2.78227
G1 X16.462 Y18.917 E2.79824
G1 X16.365 Y19.063 E2.80222
G1 X16.343 Y19.231 E2.80608
G1 X16.424 Y19.350 E2.80934
G1 X16.571 Y19.427 E2.81312
G1 X16.885 Y19.485 E2.82039
G1 X18.232 Y19.504 E2.85101
G1 X18.232 Y16.317 E2.92345
G1 X18.495 Y16.270 E2.92952
G1 X18.837 Y16.248 E2.93732
G1 X17.104 Y16.593 F7800.000
;TYPE:Solid infill
G1 F3600.000
G1 X14.489 Y16.593 E2.99760
G1 X14.489 Y16.774 E3.00178
G1 X17.268 Y16.774 E3.06582
G1 X17.336 Y16.852 E3.06822
G1 X17.371 Y16.955 E3.07072
G1 X14.489 Y16.955 E3.13715
G1 X14.489 Y17.136 E3.14132
G1 X17.385 Y17.136 E3.20807
G1 X17.365 Y17.317 E3.21227
G1 X15.661 Y17.317 E3.25154
G1 X16.008 Y17.465 E3.26025
G1 X15.996 Y17.498 E3.26106
G1 X17.328 Y17.498 E3.29177
G1 X17.248 Y17.679 E3.29633
G1 X15.927 Y17.679 E3.32678
G1 X15.858 Y17.860 E3.33125
G1 X17.147 Y17.860 E3.36095
G1 X17.028 Y18.041 E3.36595
G1 X15.745 Y18.041 E3.39552
G1 X15.601 Y18.222 E3.40086
G1 X16.888 Y18.222 E3.43054
G1 X16.725 Y18.403 E3.43615
G1 X15.446 Y18.403 E3.46565
G1 X15.291 Y18.584 E3.47114
G1 X16.543 Y18.584 E3.50002
G1 X16.362 Y18.765 E3.50594
G1 X15.152 Y18.765 E3.53382
G1 X15.024 Y18.946 E3.53894
G1 X16.228 Y18.946 E3.56670
G1 X16.193 Y18.998 E3.56814
G1 X16.177 Y19.127 E3.57114
G1 X14.926 Y19.127 E3.59997
G1 X14.828 Y19.308 E3.60471
G1 X16.180 Y19.308 E3.63587
G1 X16.305 Y19.489 E3.64094
G1 X14.687 Y19.489 E3.67824
G1 X15.152 Y20.395 F7800.000
G1 F3600.000
G1 X21.881 Y20.395 E3.83338
G1 X21.881 Y20.214 E3.83755
G1 X14.961 Y20.214 E3.99708
G1 X14.851 Y20.101 E4.00071
G1 X14.814 Y20.033 E4.00250
G1 X21.881 Y20.033 E4.16542
G1 X21.881 Y19.852 E4.16959
G1 X14.749 Y19.852 E4.33400
G1 X14.741 Y19.671 E4.33818
G1 X19.338 Y19.671 E4.44415
G1 X19.338 Y19.489 E4.44832
G1 X18.411 Y19.489 E4.46969
G1 X18.411 Y19.308 E4.47386
G1 X19.338 Y19.308 E4.49522
G1 X19.338 Y19.127 E4.49940
G1 X18.411 Y19.127 E4.52076
G1 X18.411 Y18.946 E4.52493
G1 X19.338 Y18.946 E4.54630
G1 X19.338 Y18.765 E4.55047
G1 X18.411 Y18.765 E4.57184
G1 X18.411 Y18.584 E4.57601
G1 X19.338 Y18.584 E4.59737
G1 X19.338 Y18.488 E4.59958
G1 X20.911 Y18.488 E4.63586
G1 X20.903 Y18.403 E4.63783
G1 X18.411 Y18.403 E4.69528
G1 X18.411 Y18.222 E4.69946
G1 X19.582 Y18.222 E4.72646
G1 X19.439 Y18.132 E4.73037
G1 X19.395 Y18.041 E4.73271
G1 X18.411 Y18.041 E4.75539
G1 X18.411 Y17.860 E4.75957
G1 X19.345 Y17.860 E4.78110
G1 X19.341 Y17.679 E4.78528
G1 X18.411 Y17.679 E4.80672
G1 X18.411 Y17.498 E4.81090
G1 X19.337 Y17.498 E4.83226
G1 X19.333 Y17.317 E4.83643
G1 X18.411 Y17.317 E4.85770
