; Marlin Laser code generated from Prusa Slicer output
; generated by PrusaSlicer 2.3.0-beta2+linux-x64-GTK3 on 2020-12-12 at 17:04:04 UTC









; external perimeters extrusion width = 0.11mm
; perimeters extrusion width = 0.11mm
; infill extrusion width = 0.11mm
; solid infill extrusion width = 0.11mm
; top infill extrusion width = 0.10mm
; first layer extrusion width = 0.20mm

;TYPE:Custom
; ==== Printer Rebel XY - 6 <begin> ====
M5 S0.0                          ; Power off laser
M300 S440.0 P150.0               ; Notify start
M300 S880.0 P150.0
M300 S440.0 P150.0
M300 S880.0 P150.0

G28 S0                           ; Park head
M400

M300 S660.0 P150.0               ; Start of leveling
M300 S1320.0 P150.0
M300 S660.0 P150.0
M300 S1320.0 P150.0

G21 S0                           ; set units to millimeters
G90 S0                           ; use absolute coordinates
; Filament gcode
;LAYER_CHANGE
;Z:0.1
;HEIGHT:0.1
; ---- LAYER 0 (0.1mm) ----

G1 F7800.0 S0
G1 F2400.0 S0
G1 X10.298 Y16.619 F7800.0 S0
G1 F2400.0 S0
;TYPE:External perimeter
G1 F3600.0 S0
G1 X10.545 Y16.486 S255
G1 X10.72 Y16.421 S255
G1 X11.114 Y16.321 S255
G1 X11.533 Y16.27 S255
G1 X12.173 Y16.285 S255
G1 X12.581 Y16.357 S255
G1 X12.953 Y16.479 S255
G1 X13.114 Y16.555 S255
G1 X13.37 Y16.722 S255
G1 X13.542 Y16.872 S255
G1 X13.734 Y17.137 S255
G1 X13.861 Y17.503 S255
G1 X13.938 Y18.04 S255
G1 X13.977 Y18.805 S255
G1 X14.013 Y20.575 S255
G1 X12.729 Y20.575 S255
G1 X12.675 Y18.225 S255
G1 X12.649 Y17.817 S255
G1 X12.605 Y17.552 S255
G1 X12.53 Y17.375 S255
G1 X12.353 Y17.223 S255
G1 X12.119 Y17.13 S255
G1 X11.765 Y17.087 S255
G1 X11.408 Y17.13 S255
G1 X11.169 Y17.221 S255
G1 X10.979 Y17.364 S255
G1 X10.914 Y17.469 S255
G1 X10.872 Y17.609 S255
G1 X10.831 Y18.196 S255
G1 X10.826 Y20.575 S255
G1 X9.542 Y20.575 S255
G1 X9.543 Y18.796 S255
G1 X9.568 Y18.042 S255
G1 X9.635 Y17.512 S255
G1 X9.758 Y17.148 S255
G1 X9.873 Y16.969 S255
G1 X10.029 Y16.81 S255
G1 X10.285 Y16.626 S255
G1 X11.078 Y17.166 F7800.0 S0
;TYPE:Solid infill
G1 F3600.0 S0
G1 X9.958 Y17.166 S255
G1 X9.92 Y17.226 S255
G1 X9.879 Y17.346 S255
G1 X10.78 Y17.346 S255
G1 X10.711 Y17.525 S255
G1 X9.819 Y17.525 S255
G1 X9.81 Y17.552 S255
G1 X9.791 Y17.705 S255
G1 X10.687 Y17.705 S255
G1 X10.674 Y17.884 S255
G1 X9.768 Y17.884 S255
G1 X9.746 Y18.063 S255
G1 X10.661 Y18.063 S255
G1 X10.652 Y18.243 S255
G1 X9.74 Y18.243 S255
G1 X9.734 Y18.422 S255
G1 X10.652 Y18.422 S255
G1 X10.651 Y18.602 S255
G1 X9.728 Y18.602 S255
G1 X9.722 Y18.781 S255
G1 X10.651 Y18.781 S255
G1 X10.65 Y18.96 S255
G1 X9.721 Y18.96 S255
G1 X9.721 Y19.14 S255
G1 X10.65 Y19.14 S255
G1 X10.65 Y19.319 S255
G1 X9.721 Y19.319 S255
G1 X9.721 Y19.499 S255
G1 X10.649 Y19.499 S255
G1 X10.649 Y19.678 S255
G1 X9.721 Y19.678 S255
G1 X9.721 Y19.857 S255
G1 X10.649 Y19.857 S255
G1 X10.648 Y20.037 S255
G1 X9.721 Y20.037 S255
G1 X9.721 Y20.216 S255
G1 X10.648 Y20.216 S255
G1 X10.647 Y20.396 S255
G1 X9.64 Y20.396 S255
G1 F2400.0 S0
G1 X12.824 Y20.396 F7800.0 S0
G1 F2400.0 S0
G1 F3600.0 S0
G1 X13.831 Y20.396 S255
G1 X13.827 Y20.216 S255
G1 X12.9 Y20.216 S255
G1 X12.896 Y20.037 S255
G1 X13.824 Y20.037 S255
G1 X13.82 Y19.857 S255
G1 X12.891 Y19.857 S255
G1 X12.887 Y19.678 S255
G1 X13.816 Y19.678 S255
G1 X13.813 Y19.499 S255
G1 X12.883 Y19.499 S255
G1 X12.879 Y19.319 S255
G1 X13.809 Y19.319 S255
G1 X13.805 Y19.14 S255
G1 X12.875 Y19.14 S255
G1 X12.871 Y18.96 S255
G1 X13.801 Y18.96 S255
G1 X13.797 Y18.781 S255
G1 X12.867 Y18.781 S255
G1 X12.862 Y18.602 S255
G1 X13.788 Y18.602 S255
G1 X13.779 Y18.422 S255
G1 X12.858 Y18.422 S255
G1 X12.854 Y18.243 S255
G1 X13.769 Y18.243 S255
G1 X13.76 Y18.063 S255
G1 X12.844 Y18.063 S255
G1 X12.832 Y17.884 S255
G1 X13.735 Y17.884 S255
G1 X13.71 Y17.705 S255
G1 X12.811 Y17.705 S255
G1 X12.782 Y17.525 S255
G1 X13.68 Y17.525 S255
G1 X13.618 Y17.346 S255
G1 X12.711 Y17.346 S255
G1 X12.677 Y17.267 S255
G1 X12.561 Y17.166 S255
G1 X13.535 Y17.166 S255
G1 X13.41 Y16.993 S255
G1 X10.105 Y16.987 S255
G1 X10.325 Y16.808 S255
G1 X13.175 Y16.808 S255
G1 X13.027 Y16.711 S255
G1 X12.835 Y16.628 S255
G1 X10.676 Y16.628 S255
G1 X11.146 Y16.497 S255
G1 X11.539 Y16.449 S255
G1 X12.534 Y16.449 S255
G1 X11.613 Y15.063 F7800.0 S0
;TYPE:External perimeter
G1 F3600.0 S0
G1 X9.558 Y15.063 S255
G1 X9.517 Y14.25 S255
G1 X9.505 Y13.38 S255
G1 X9.551 Y9.752 S255
G1 X10.742 Y9.76 S255
G1 X10.93 Y9.788 S255
G1 X11.035 Y9.841 S255
G1 X11.096 Y9.929 S255
G1 X11.143 Y10.232 S255
G1 X11.118 Y11.581 S255
G1 X11.145 Y11.819 S255
G1 X11.23 Y11.999 S255
G1 X11.443 Y12.052 S255
G1 X11.843 Y12.076 S255
G1 X13.157 Y12.083 S255
G1 X13.157 Y12.732 S255
G1 X11.143 Y12.732 S255
G1 X11.143 Y13.674 S255
G1 X14.217 Y13.674 S255
G1 X14.217 Y15.063 S255
G1 X11.628 Y15.063 S255
G1 F2400.0 S0
G1 X10.979 Y9.933 F7800.0 S0
G1 F2400.0 S0
;TYPE:Solid infill
G1 F3600.0 S0
G1 X9.727 Y9.933 S255
G1 X9.725 Y10.117 S255
G1 X10.944 Y10.117 S255
G1 X10.964 Y10.244 S255
G1 X10.963 Y10.3 S255
G1 X9.723 Y10.3 S255
G1 X9.72 Y10.483 S255
G1 X10.96 Y10.483 S255
G1 X10.957 Y10.667 S255
G1 X9.718 Y10.667 S255
G1 X9.716 Y10.85 S255
G1 X10.953 Y10.85 S255
G1 X10.95 Y11.033 S255
G1 X9.713 Y11.033 S255
G1 X9.711 Y11.216 S255
G1 X10.947 Y11.216 S255
G1 X10.943 Y11.4 S255
G1 X9.709 Y11.4 S255
G1 X9.706 Y11.583 S255
G1 X10.94 Y11.583 S255
G1 X10.959 Y11.766 S255
G1 X9.704 Y11.766 S255
G1 X9.702 Y11.95 S255
G1 X11.009 Y11.95 S255
G1 X11.096 Y12.133 S255
G1 X9.699 Y12.133 S255
G1 X9.697 Y12.316 S255
G1 X12.979 Y12.316 S255
G1 X12.979 Y12.5 S255
G1 X9.695 Y12.5 S255
G1 X9.692 Y12.683 S255
G1 X10.965 Y12.683 S255
G1 X10.965 Y12.866 S255
G1 X9.69 Y12.866 S255
G1 X9.688 Y13.05 S255
G1 X10.965 Y13.05 S255
G1 X10.965 Y13.233 S255
G1 X9.685 Y13.233 S255
G1 X9.684 Y13.416 S255
G1 X10.965 Y13.416 S255
G1 X10.965 Y13.599 S255
G1 X9.686 Y13.599 S255
G1 X9.689 Y13.783 S255
G1 X10.965 Y13.783 S255
G1 X10.965 Y13.852 S255
G1 X14.038 Y13.852 S255
G1 X14.038 Y13.966 S255
G1 X9.691 Y13.966 S255
G1 X9.694 Y14.149 S255
G1 X14.038 Y14.149 S255
G1 X14.038 Y14.333 S255
G1 X9.7 Y14.333 S255
G1 X9.709 Y14.516 S255
G1 X14.038 Y14.516 S255
G1 X14.038 Y14.699 S255
G1 X9.718 Y14.699 S255
G1 X9.727 Y14.883 S255
G1 X14.119 Y14.883 S255
G1 F2400.0 S0
G1 X17.586 Y10.902 F7800.0 S0
G1 F2400.0 S0
;TYPE:External perimeter
G1 F3600.0 S0
G1 X18.001 Y10.886 S255
G1 X18.39 Y10.904 S255
G1 X18.622 Y10.97 S255
G1 X18.815 Y11.101 S255
G1 X19.018 Y11.316 S255
G1 X19.173 Y11.613 S255
G1 X19.263 Y11.956 S255
G1 X19.293 Y12.321 S255
G1 X19.267 Y12.685 S255
G1 X19.231 Y12.866 S255
G1 X19.122 Y13.19 S255
G1 X19.043 Y13.341 S255
G1 X18.848 Y13.574 S255
G1 X18.715 Y13.666 S255
G1 X18.467 Y13.729 S255
G1 X18.104 Y13.77 S255
G1 X17.649 Y13.778 S255
G1 X17.245 Y13.727 S255
G1 X17.042 Y13.629 S255
G1 X16.799 Y13.404 S255
G1 X16.684 Y13.234 S255
G1 X16.558 Y12.942 S255
G1 X16.476 Y12.499 S255
G1 X16.471 Y12.259 S255
G1 X16.492 Y12.018 S255
G1 X16.541 Y11.779 S255
G1 X16.612 Y11.551 S255
G1 X16.7 Y11.361 S255
G1 X16.811 Y11.204 S255
G1 X16.953 Y11.082 S255
G1 X17.125 Y10.994 S255
G1 X17.33 Y10.937 S255
G1 X17.571 Y10.903 S255
G1 F2400.0 S0
G1 X15.471 Y14.339 F7800.0 S0
G1 F2400.0 S0
G1 F3600.0 S0
G1 X15.253 Y14.129 S255
G1 X15.088 Y13.884 S255
G1 X14.821 Y13.304 S255
G1 X14.689 Y12.813 S255
G1 X14.663 Y12.576 S255
G1 X14.663 Y12.332 S255
G1 X14.688 Y12.078 S255
G1 X14.774 Y11.662 S255
G1 X14.969 Y11.098 S255
G1 X15.159 Y10.752 S255
G1 X15.396 Y10.465 S255
G1 X15.586 Y10.299 S255
G1 X15.807 Y10.147 S255
G1 X16.372 Y9.865 S255
G1 X16.67 Y9.771 S255
G1 X17.148 Y9.713 S255
G1 X18.087 Y9.701 S255
G1 X18.604 Y9.719 S255
G1 X18.975 Y9.757 S255
G1 X19.291 Y9.818 S255
G1 X19.563 Y9.904 S255
G1 X19.805 Y10.02 S255
G1 X20.03 Y10.169 S255
G1 X20.249 Y10.355 S255
G1 X20.55 Y10.674 S255
G1 X20.767 Y10.974 S255
G1 X20.871 Y11.174 S255
G1 X20.948 Y11.39 S255
G1 X21.002 Y11.631 S255
G1 X21.036 Y11.907 S255
G1 X21.053 Y12.408 S255
G1 X21.037 Y12.903 S255
G1 X20.991 Y13.229 S255
G1 X20.953 Y13.352 S255
G1 X20.819 Y13.621 S255
G1 X20.59 Y13.974 S255
G1 X20.448 Y14.143 S255
G1 X20.099 Y14.452 S255
G1 X19.9 Y14.585 S255
G1 X19.428 Y14.825 S255
G1 X19.014 Y14.968 S255
G1 X18.624 Y15.023 S255
G1 X18.23 Y15.052 S255
G1 X17.261 Y15.054 S255
G1 X16.877 Y15.013 S255
G1 X16.721 Y14.976 S255
G1 X16.172 Y14.755 S255
G1 X15.606 Y14.447 S255
G1 X15.483 Y14.349 S255
G1 X17.095 Y13.763 F7800.0 S0
;TYPE:Solid infill
G1 F3600.0 S0
G1 X15.229 Y13.763 S255
G1 X15.144 Y13.579 S255
G1 X16.725 Y13.579 S255
G1 X16.576 Y13.394 S255
G1 X15.059 Y13.394 S255
G1 X14.981 Y13.209 S255
G1 X16.478 Y13.209 S255
G1 X16.399 Y13.024 S255
G1 X14.931 Y13.024 S255
G1 X14.881 Y12.839 S255
G1 X16.357 Y12.839 S255
G1 X16.323 Y12.655 S255
G1 X14.851 Y12.655 S255
G1 X14.842 Y12.47 S255
G1 X16.296 Y12.47 S255
G1 X16.293 Y12.285 S255
G1 X14.847 Y12.285 S255
G1 X14.866 Y12.1 S255
G1 X16.306 Y12.1 S255
G1 X16.331 Y11.915 S255
G1 X14.904 Y11.915 S255
G1 X14.942 Y11.731 S255
G1 X16.369 Y11.731 S255
G1 X16.427 Y11.546 S255
G1 X15.003 Y11.546 S255
G1 X15.067 Y11.361 S255
G1 X16.503 Y11.361 S255
G1 X16.612 Y11.176 S255
G1 X15.133 Y11.17 S255
G1 X15.231 Y10.991 S255
G1 X16.784 Y10.991 S255
G1 X16.852 Y10.932 S255
G1 X17.133 Y10.807 S255
G1 X15.346 Y10.807 S255
G1 X15.498 Y10.622 S255
G1 X20.255 Y10.622 S255
G1 X20.07 Y10.437 S255
G1 X15.7 Y10.437 S255
G1 X15.996 Y10.252 S255
G1 X19.832 Y10.252 S255
G1 X19.717 Y10.176 S255
G1 X19.486 Y10.067 S255
G1 X16.366 Y10.067 S255
G1 X16.708 Y9.946 S255
G1 X17.16 Y9.891 S255
G1 X19.108 Y9.882 S255
G1 X20.525 Y10.807 F7800.0 S0
G1 F3600.0 S0
G1 X18.699 Y10.807 S255
G1 X18.956 Y10.991 S255
G1 X20.56 Y10.991 S255
G1 X20.671 Y11.176 S255
G1 X19.132 Y11.176 S255
G1 X19.243 Y11.361 S255
G1 X20.748 Y11.361 S255
G1 X20.777 Y11.44 S255
G1 X20.8 Y11.546 S255
G1 X19.339 Y11.546 S255
G1 X19.389 Y11.731 S255
G1 X20.834 Y11.731 S255
G1 X20.857 Y11.915 S255
G1 X19.437 Y11.915 S255
G1 X19.454 Y12.1 S255
G1 X20.864 Y12.1 S255
G1 X20.87 Y12.285 S255
G1 X19.469 Y12.285 S255
G1 X19.461 Y12.47 S255
G1 X20.872 Y12.47 S255
G1 X20.866 Y12.655 S255
G1 X19.448 Y12.655 S255
G1 X19.418 Y12.839 S255
G1 X20.861 Y12.839 S255
G1 X20.84 Y13.024 S255
G1 X19.367 Y13.024 S255
G1 X19.304 Y13.209 S255
G1 X20.81 Y13.209 S255
G1 X20.733 Y13.394 S255
G1 X19.216 Y13.394 S255
G1 X19.077 Y13.579 S255
G1 X20.634 Y13.579 S255
G1 X20.514 Y13.763 S255
G1 X18.731 Y13.763 S255
G1 X18.991 Y14.872 F7800.0 S0
G1 F3600.0 S0
G1 X17.241 Y14.872 S255
G1 X16.775 Y14.806 S255
G1 X16.482 Y14.688 S255
G1 X19.28 Y14.688 S255
G1 X19.668 Y14.503 S255
G1 X16.082 Y14.503 S255
G1 X15.743 Y14.318 S255
G1 X19.979 Y14.318 S255
G1 X20.19 Y14.133 S255
G1 X15.499 Y14.133 S255
G1 X15.346 Y13.948 S255
G1 X20.484 Y13.948 S255
G1 F2400.0 S0
G1 X18.852 Y16.248 F7800.0 S0
G1 F2400.0 S0
;TYPE:External perimeter
G1 F3600.0 S0
G1 X20.167 Y16.232 S255
G1 X22.411 Y16.269 S255
G1 X22.429 Y17.344 S255
G1 X19.514 Y17.408 S255
G1 X19.524 Y17.898 S255
G1 X19.577 Y18.009 S255
G1 X19.69 Y18.079 S255
G1 X20.033 Y18.129 S255
G1 X21.061 Y18.174 S255
G1 X21.107 Y18.667 S255
G1 X19.516 Y18.667 S255
G1 X19.516 Y19.503 S255
G1 X22.06 Y19.503 S255
G1 X22.06 Y20.575 S255
G1 X17.029 Y20.572 S255
G1 X15.546 Y20.544 S255
G1 X15.254 Y20.519 S255
G1 X15.011 Y20.463 S255
G1 X14.877 Y20.383 S255
G1 X14.705 Y20.208 S255
G1 X14.599 Y20.009 S255
G1 X14.554 Y19.786 S255
G1 X14.571 Y19.536 S255
G1 X14.652 Y19.26 S255
G1 X14.896 Y18.807 S255
G1 X15.145 Y18.48 S255
G1 X15.564 Y17.99 S255
G1 X15.688 Y17.804 S255
G1 X15.78 Y17.562 S255
G1 X15.517 Y17.449 S255
G1 X15.17 Y17.404 S255
G1 X14.311 Y17.396 S255
G1 X14.311 Y16.323 S255
G1 X15.812 Y16.326 S255
G1 X16.496 Y16.362 S255
G1 X16.995 Y16.446 S255
G1 X17.27 Y16.55 S255
G1 X17.36 Y16.609 S255
G1 X17.494 Y16.761 S255
G1 X17.56 Y16.956 S255
G1 X17.565 Y17.216 S255
G1 X17.506 Y17.531 S255
G1 X17.443 Y17.694 S255
G1 X17.242 Y18.056 S255
G1 X16.96 Y18.421 S255
G1 X16.462 Y18.917 S255
G1 X16.365 Y19.063 S255
G1 X16.343 Y19.231 S255
G1 X16.424 Y19.35 S255
G1 X16.571 Y19.427 S255
G1 X16.885 Y19.485 S255
G1 X18.232 Y19.504 S255
G1 X18.232 Y16.317 S255
G1 X18.495 Y16.27 S255
G1 X18.837 Y16.248 S255
G1 X17.104 Y16.593 F7800.0 S0
;TYPE:Solid infill
G1 F3600.0 S0
G1 X14.489 Y16.593 S255
G1 X14.489 Y16.774 S255
G1 X17.268 Y16.774 S255
G1 X17.336 Y16.852 S255
G1 X17.371 Y16.955 S255
G1 X14.489 Y16.955 S255
G1 X14.489 Y17.136 S255
G1 X17.385 Y17.136 S255
G1 X17.365 Y17.317 S255
G1 X15.661 Y17.317 S255
G1 X16.008 Y17.465 S255
G1 X15.996 Y17.498 S255
G1 X17.328 Y17.498 S255
G1 X17.248 Y17.679 S255
G1 X15.927 Y17.679 S255
G1 X15.858 Y17.86 S255
G1 X17.147 Y17.86 S255
G1 X17.028 Y18.041 S255
G1 X15.745 Y18.041 S255
G1 X15.601 Y18.222 S255
G1 X16.888 Y18.222 S255
G1 X16.725 Y18.403 S255
G1 X15.446 Y18.403 S255
G1 X15.291 Y18.584 S255
G1 X16.543 Y18.584 S255
G1 X16.362 Y18.765 S255
G1 X15.152 Y18.765 S255
G1 X15.024 Y18.946 S255
G1 X16.228 Y18.946 S255
G1 X16.193 Y18.998 S255
G1 X16.177 Y19.127 S255
G1 X14.926 Y19.127 S255
G1 X14.828 Y19.308 S255
G1 X16.18 Y19.308 S255
G1 X16.305 Y19.489 S255
G1 X14.687 Y19.489 S255
G1 X15.152 Y20.395 F7800.0 S0
G1 F3600.0 S0
G1 X21.881 Y20.395 S255
G1 X21.881 Y20.214 S255
G1 X14.961 Y20.214 S255
G1 X14.851 Y20.101 S255
G1 X14.814 Y20.033 S255
G1 X21.881 Y20.033 S255
G1 X21.881 Y19.852 S255
G1 X14.749 Y19.852 S255
G1 X14.741 Y19.671 S255
G1 X19.338 Y19.671 S255
G1 X19.338 Y19.489 S255
G1 X18.411 Y19.489 S255
G1 X18.411 Y19.308 S255
G1 X19.338 Y19.308 S255
G1 X19.338 Y19.127 S255
G1 X18.411 Y19.127 S255
G1 X18.411 Y18.946 S255
G1 X19.338 Y18.946 S255
G1 X19.338 Y18.765 S255
G1 X18.411 Y18.765 S255
G1 X18.411 Y18.584 S255
G1 X19.338 Y18.584 S255
G1 X19.338 Y18.488 S255
G1 X20.911 Y18.488 S255
G1 X20.903 Y18.403 S255
G1 X18.411 Y18.403 S255
G1 X18.411 Y18.222 S255
G1 X19.582 Y18.222 S255
G1 X19.439 Y18.132 S255
G1 X19.395 Y18.041 S255
G1 X18.411 Y18.041 S255
G1 X18.411 Y17.86 S255
G1 X19.345 Y17.86 S255
G1 X19.341 Y17.679 S255
G1 X18.411 Y17.679 S255
G1 X18.411 Y17.498 S255
G1 X19.337 Y17.498 S255
G1 X19.333 Y17.317 S255
G1 X18.411 Y17.317 S255
G1 X18.411 Y17.136 S255
G1 X22.247 Y17.136 S255
G1 X22.244 Y16.955 S255
G1 X18.411 Y16.955 S255
G1 X18.411 Y16.774 S255
G1 X22.241 Y16.774 S255
G1 X22.238 Y16.593 S255
G1 X18.411 Y16.593 S255
G1 X18.411 Y16.466 S255
G1 X18.769 Y16.427 S255
G1 X22.315 Y16.412 S255
G1 F2400.0 S0
G1 X32.019 Y14.944 F7800.0 S0
G1 F2400.0 S0
;TYPE:External perimeter
G1 F3600.0 S0
G1 X31.134 Y14.937 S255
G1 X30.122 Y14.878 S255
G1 X29.808 Y14.828 S255
G1 X29.417 Y14.715 S255
G1 X29.057 Y14.545 S255
G1 X28.68 Y14.307 S255
G1 X28.464 Y14.127 S255
G1 X28.28 Y13.932 S255
G1 X28.058 Y13.602 S255
G1 X27.902 Y13.229 S255
G1 X27.809 Y12.805 S255
G1 X27.781 Y12.479 S255
G1 X27.78 Y12.156 S255
G1 X27.829 Y11.723 S255
G1 X27.941 Y11.343 S255
G1 X28.052 Y11.113 S255
G1 X28.194 Y10.893 S255
G1 X28.473 Y10.571 S255
G1 X28.791 Y10.299 S255
G1 X29.155 Y10.079 S255
G1 X29.583 Y9.905 S255
G1 X30.098 Y9.776 S255
G1 X30.721 Y9.688 S255
G1 X31.47 Y9.639 S255
G1 X32.287 Y9.626 S255
G1 X33.408 Y9.646 S255
G1 X33.453 Y9.662 S255
G1 X33.474 Y9.706 S255
G1 X33.499 Y9.906 S255
G1 X33.505 Y10.926 S255
G1 X33.224 Y10.979 S255
G1 X32.884 Y11.007 S255
G1 X30.836 Y11.066 S255
G1 X30.422 Y11.138 S255
G1 X30.17 Y11.237 S255
G1 X30.001 Y11.34 S255
G1 X29.86 Y11.468 S255
G1 X29.748 Y11.619 S255
G1 X29.668 Y11.791 S255
G1 X29.619 Y11.983 S255
G1 X29.6 Y12.192 S255
G1 X29.611 Y12.42 S255
G1 X29.679 Y12.788 S255
G1 X29.758 Y13.007 S255
G1 X29.819 Y13.109 S255
G1 X29.977 Y13.265 S255
G1 X30.204 Y13.377 S255
G1 X30.505 Y13.45 S255
G1 X30.899 Y13.498 S255
G1 X31.406 Y13.527 S255
G1 X33.506 Y13.576 S255
G1 X33.506 Y14.957 S255
G1 X32.034 Y14.944 S255
G1 F2400.0 S0
G1 X33.388 Y9.807 F7800.0 S0
G1 F2400.0 S0
;TYPE:Solid infill
G1 F3600.0 S0
G1 X31.478 Y9.817 S255
G1 X30.74 Y9.865 S255
G1 X30.133 Y9.951 S255
G1 X29.973 Y9.991 S255
G1 X33.321 Y9.991 S255
G1 X33.322 Y10.175 S255
G1 X29.392 Y10.175 S255
G1 X29.235 Y10.239 S255
G1 X29.036 Y10.359 S255
G1 X33.323 Y10.359 S255
G1 X33.324 Y10.543 S255
G1 X28.781 Y10.543 S255
G1 X28.574 Y10.727 S255
G1 X33.325 Y10.727 S255
G1 X33.326 Y10.778 S255
G1 X32.874 Y10.828 S255
G1 X30.818 Y10.888 S255
